X:68
T:Dance Ti' Thy Daddy
M:3/4
K:G
d | ggg edB | Aaa gfd | ggg edB | Ggg f g2 |
ggg edB | Aaa gfd | ggg edB | Ggg f g2 ||
b2 ba bd' | a2 ag fa | b2 ba bd' | dgg f g2 |
b2 ba bd' | a2 ag fa | b2 ba bd' | dgg f g2 ||
